X:375
T: ES BLEIS SICH VON DER LINNE
N: E1561
O: Europa, Mitteleuropa, Deutschland, Westfalen, Soest
R: Staende -, Bauern - Lied, Flachsbrechen, bei der Arbeit
M: 3/4
L: 1/8
K: G
D2 | G3ABc | d2B2
ed | d2d2B2 | A4
D2 | G3ABc | d2B2
ed | d2d2B2 | A4
AB | c2A2BA | G2D2
B2 | c2B2A2 | G4

